!!!COM: Anonim
!!!CDT: [?]
!!!OTL@@POL: Łaska nieba gornego
!!!TXO: Polish
!!!ODT: 
!!!GTL: Hymnbook E
!!!ARL: Opactwo św. Wojciecha, Staniątki 
!!!voices:	3
**kern	**kern	**text	**text	**kern	**text	**text
*staff3	*staff2	*staff2	*staff2	*staff1	*staff1	*staff1
*I"Basso	*I"Canto II	*	*	*I"Canto I	*	*
=1-	=1-	=1-	=1-	=1-	=1-	=1-
*clefF4	*clefG2	*	*	*clefG2	*	*
*k[]	*k[]	*	*	*k[]	*	*
*M3/2	*M3/2	*	*	*M3/2	*	*
4A\	4a/	Łas-	U	4cc\	Łas-	U
4G\	4b\	-ka	lu-	4dd\	-ka	lu-
2C/	2cc\	nie-	-dzi	2ee\	nie-	-dzi
2C/	2cc\	-ba	Pan-	2ee\	-ba	Pan-
=2	=2	=2	=2	=2	=2	=2
4C/	4cc\	g&oacute;r-	-na	4ee\	g&oacute;r-	-na
4GG/	4b\	-ne-	czys-	4dd\	-ne-	czys-
1C	1cc	-go	-ta	1ee	-go	-ta
=3	=3	=3	=3	=3	=3	=3
4G\	4b\	dziw-	sy-	4dd\	dziw-	sy-
4E\	4cc#\	-ną	-na	4ee\	-ną	-na
2F\	4dd\	rzecz	po-	4ff\	rzecz	po-
.	4ccni\	.	.	4ee\	.	.
2D\	4b\	spra-	-ro-	4dd\	spra-	-ro-
.	4a/	.	.	4cc\	.	.
=4	=4	=4	=4	=4	=4	=4
2E\	4.a/	-wi-	-dzi-	4b\	-wi-	-dzi-
.	.	.	.	4cc\	.	.
.	8g#/	.	.	.	.	.
1AA	1a	-ła	-ła	1a	-ła	-ła
!!linebreak:original
=5:|!|:	=5:|!|:	=5:|!|:	=5:|!|:	=5:|!|:	=5:|!|:	=5:|!|:
4E\	4g#/	Kt&oacute;-	Haf-	4b\	Kt&oacute;-	Haf-
4E\	4a/	-re-	-to-	4cc\	-re-	-to-
2E\	2b\	-go	-wa-	2g#/	-go	-wa-
2E\	2cc\	ża-	-ne	2a/	ża-	-ne
=6	=6	=6	=6	=6	=6	=6
4E\	4g#/	-den	gwiaz-	4b\	-den	gwiaz-
4E\	4a/	ro-	-da-	4cc\	ro-	-da-
1D	2.b\	-zum	-mi	2.dd\	-zum	-mi
.	4a/	.	.	4cc\	.	.
=7	=7	=7	=7	=7	=7	=7
4G\	4b\	o-	o-	4dd\	o-	o-
4E\	4cc\	-gar-	-puś-	4ee\	-gar-	-puś-
2F\	4dd\	-nąć	-ciw-	4ff\	-nąć	-ciw-
.	4cc\	.	.	4ee\	.	.
4C/	4b\	nie	-szy	4dd\	nie	-szy
4D\	4a/	.	.	4cc\	.	.
=8	=8	=8	=8	=8	=8	=8
4E\	4.a/	mo-	ło-	4b\	mo-	ło-
4EE/	.	.	.	4cc\	.	.
.	8g#/	.	.	.	.	.
1AA	1a	-że	-że.	1a	-że	-że.
==:|!	==:|!	==:|!	==:|!	==:|!	==:|!	==:|!
*-	*-	*-	*-	*-	*-	*-
!!title: @{OTL}, @{GTL}: @{pag}, ed. @{ENC}
!!!pag: pp. 55v-56r
!!!GTL: Hymnbook E
!!!EFL: 
!!!YEM: Creative Commons CC/BY/NC/SA 4.0
!!!ENC: Marcin Konik
!!!END: 2015-05-06
!!!EED: Marcin Konik
!!!EEV: 
!!!ONB: Encoded in vim by Marcin Konik
!!!CharacterEncoding: utf-8
!!!RDF**kern: l=long note in original notation
!!!RDF**kern: i=editorial accidental
!!muse2ps: z14jc180F
